packages/kaspersky-hexa-ui-icons/src/iconsSVGs/48/ScanSearch.svg

<svg width="48" height="48" viewBox="0 0 48 48" fill="none" xmlns="http://www.w3.org/2000/svg">
<path fill-rule="evenodd" clip-rule="evenodd" d="M18.1112 4.11116C10.3792 4.11116 4.11116 10.3792 4.11116 18.1112C4.11116 25.8431 10.3792 32.1112 18.1112 32.1112C25.8431 32.1112 32.1112 25.8431 32.1112 18.1112C32.1112 10.3792 25.8431 4.11116 18.1112 4.11116ZM18.1112 30.1112C11.4837 30.1112 6.11116 24.7386 6.11116 18.1112C6.11116 11.4837 11.4837 6.11116 18.1112 6.11116C24.7386 6.11116 30.1112 11.4837 30.1112 18.1112C30.1112 24.7386 24.7386 30.1112 18.1112 30.1112ZM18.1112 9.11116V11.1112C14.2452 11.1112 11.1112 14.2452 11.1112 18.1112H9.11116C9.11116 13.1406 13.1406 9.11116 18.1112 9.11116ZM36.1812 30.5712L34.0812 32.6712L31.5112 30.1112C38.0381 22.8259 37.579 11.6686 30.4754 4.94433C23.3719 -1.77994 12.2062 -1.62684 5.28966 5.28966C-1.62684 12.2062 -1.77994 23.3719 4.94433 30.4754C11.6686 37.579 22.8259 38.0381 30.1112 31.5112L32.6912 34.0812L30.5912 36.1812L42.4912 48.1112L48.0912 42.5112L36.1812 30.5712ZM18.1112 34.1112C9.2746 34.1112 2.11116 26.9477 2.11116 18.1112C2.11116 9.2746 9.2746 2.11116 18.1112 2.11116C26.9477 2.11116 34.1112 9.2746 34.1112 18.1112C34.1112 26.9477 26.9477 34.1112 18.1112 34.1112ZM33.4012 36.1812L36.1812 33.4012L45.2612 42.4912L42.4912 45.2612L33.4012 36.1812Z"  fill="currentColor"/>
</svg>

<svg xmlns="http://www.w3.org/2000/svg" width="48" height="48" fill="none" viewBox="0 0 48 48"><path fill="currentColor" fill-rule="evenodd" d="M18.1112 4.1112c-7.732 0-14 6.268-14 14s6.268 14 14 14 14-6.2681 14-14-6.2681-14-14-14m0 26c-6.6275 0-12-5.3726-12-12 0-6.6275 5.3725-12 12-12 6.6274 0 12 5.3725 12 12 0 6.6274-5.3726 12-12 12m0-21v2c-3.866 0-7 3.134-7 7h-2c0-4.9706 4.0294-9 9-9m18.07 21.46-2.1 2.1-2.57-2.56c6.5269-7.2853 6.0678-18.4426-1.0358-25.1669s-18.2692-6.5711-25.1857.3454-7.0696 18.0822-.3454 25.1857 17.8816 7.5627 25.1669 1.0358l2.58 2.57-2.1 2.1 11.9 11.93 5.6-5.6zm-18.07 3.54c-8.8366 0-16-7.1635-16-16s7.1634-16 16-16c8.8365 0 16 7.1634 16 16 0 8.8365-7.1635 16-16 16m15.29 2.07 2.78-2.78 9.08 9.09-2.77 2.77z" clip-rule="evenodd"/></svg>
